X:730
T: Feabhra Riddims
Z: Piano Box Version by Martin Fleischmann
H: Created 2013-10-20 /  Modified 2014-05-22
R: hornpipe
M: 4/4
L: 1/8
K: Edor
P:A
|:"em"E/E/E EE EB,B,E | z2 E2 z2 E2 | "em"E/E/E EE EB,B,E | "D"D2 FA-AA FD :| 
P:B
|:"em"E/E/E EG BBGE | "D"F2zD -DDFA|1 "em"E/E/E EG BBGE | "bm"A2AF DDFD:|2 "em"E3D "bm"B,A,B,D | "em"E2ED E4||
P:C
|: "em"E2BB EBBB | "D"A2AF DEFD | "em"E3B BAGB | "bm" dDdB AFDF|
| "em"E3B BAGB | "D"A2AF DEFD | "em"E3D "bm"B,A,B,D | "em"E2ED E4:|
P:D
|:"G"D2GG DGGG |"A"DEED EFED| "G"DGGG DGGG| "em"DEED E4|
|"G"D2GG DGGG |"A"DEED EFED|  "em"E3D "bm"B,A,B,D | "em"E2ED E4:|

